!!!OTL: Freundschaftsbund.
!!!OTL-incipit: IM HUT DER FREUNDSCHAFT
!!!COM: J. Ab. P. Schulz
!!!ARE: Europa, Mitteleuropa, Deutschland
!!!SCT: F0700
!!!TXL: @@DE
!!!YEM: Copyright 1995, estate of Helmut Schaffrath.
**kern	**text
*ICvox	*
*clefG2	*
*M4/4	*
*met(c)	*
*k[f#c#g#]	*
*A:	*
!LO:TX:a:t=Feierlich.	!
{4cc#	1._Jm
=1	=1
4a	Hut
4e	der
8.eeL	Freundſchaft
16ddJ	.
8.cc#L	.
16bJ	.
=2	=2
4.a	ſtimmet
8a	.
4.a}	an
{8a	voll
=3	=3
8.bL	Ernſt
16ddJ	.
8.f#L	der
16bJ	.
4e	Freundſchaft
4d	.
=4	=4
2.c#}	Lied!
{4a	Der
=5	=5
4a	iſt
4e	bei
8.eeL	Gott
16ddJ	.
8.cc#L	kein
16bJ	.
=6	=6
4.a	Eh-
8a	-renmann,
4.a}	.
{8a	dem
=7	=7
8.ff#L	hier
16eeJ	.
8.ddL	ſein
16cc#J	.
4b/	Herʒ
4a	nicht
=8	=8
2.ee}	glüht.
{4e	Die
=9	=9
4dn	Freundſchaft
4d	.
4c#	ſtärkt
4c#	in
=10	=10
4.f#	Freud'
8f#	und
4.e}	Noth,
{8e	und
=11	=11
4a	folgt
4cc#	durch
4ee	Le-
4e	-ben
=12	=12
(>4f#	und
2dd)	.
(8b\L	durch
8g#J)	.
=13	=13
2.a}	Tod.
==	==
!!!AGN: Geselligkeits -, Bundes - Lied, Freundschaft
!!!ONB: ESAC (Essen Associative Code) Database: FINK
!!!AMT: simple quadruple
!!!AIN: vox
!!!EED: Helmut Schaffrath
!!!EEV: 1.0
!!!RDF**kern: > = above
!!Text: Voss
!!!GTL: Liedertafel- und Gesellschaftslieder
!!!source: Musikalischer Hausschatz der Deutschen. Eine Sammlung von über 1000 Liedern und Gesängen mit Singstimmen und Klavierbegleitung. Leipzig, Litterarisches Verlags-Haus.
!!!page: 470
!!!URL-scan: https://www.digitale-sammlungen.de/en/view/bsb11144622?page=421
!!!ENC: Anna Maria Matuszewska
!!!EEV: 2024/08/05
*-	*-
